img/partners/pecom.svg

<svg width="90" height="35" viewBox="0 0 90 35" fill="none" xmlns="http://www.w3.org/2000/svg">
<path d="M42.2754 0.849812C47.2936 0.509267 52.3183 0.195479 57.3462 0.047099C63.6325 -0.14912 69.9155 0.296832 76.1751 0.846569C79.8708 11.2332 79.5805 22.8182 76.1718 33.2413C70.4791 33.7684 64.7595 34.1462 59.04 34.0716C53.4453 33.9776 47.8571 33.6362 42.2754 33.2348C42.8357 30.367 43.4195 27.5015 43.9798 24.6304C51.6802 25.0318 59.4478 25.6528 67.1255 24.6369C67.3177 23.4863 67.4758 22.3285 67.5942 21.1674C62.4114 21.1609 57.2278 21.1674 52.0483 21.1641C52.0442 18.4146 52.0442 15.6603 52.0483 12.9108C57.2513 12.9075 62.4511 12.914 67.655 12.9075C67.5398 11.7529 67.3987 10.6024 67.2163 9.45831C59.4957 8.56397 51.7207 8.9856 43.9863 9.45831C43.413 6.58962 42.8422 3.72174 42.2754 0.849812ZM0 0.849812C12.6237 0.853867 25.2482 0.849812 37.8719 0.853867C37.8751 11.6516 37.8751 22.4469 37.8686 33.2454C33.8291 33.2454 29.7896 33.2454 25.7468 33.2454C25.7403 25.5004 25.7509 17.753 25.7436 10.008C21.2119 10.0048 16.6802 10.008 12.1518 10.008C12.1412 17.753 12.155 25.5004 12.1445 33.2486C8.09524 33.2454 4.04924 33.2454 0 33.2454L0 0.849812ZM83.7279 0.853867C87.7431 0.849812 91.7591 0.849812 95.7743 0.853867C95.7775 4.75068 95.771 8.6483 95.7775 12.5492C97.2694 12.5492 98.7646 12.5492 100.259 12.5492C103.495 8.65559 106.715 4.74419 109.954 0.849812C114.584 0.849812 119.214 0.853867 123.843 0.849812C119.308 5.92231 114.752 10.9737 110.217 16.0487C115.056 21.7787 119.892 27.5088 124.724 33.2413C119.771 33.2454 114.816 33.2486 109.859 33.2413C106.617 29.1791 103.381 25.1088 100.128 21.0498C98.6762 21.0531 97.2256 21.0498 95.7743 21.0563C95.7743 25.1193 95.7775 29.1824 95.771 33.2454C91.7591 33.2454 87.7431 33.2454 83.7311 33.2454C83.7238 22.4501 83.7279 11.6516 83.7279 0.853867Z" fill="#1D2172"/>
</svg>

<svg width="90" height="35" fill="none" xmlns="http://www.w3.org/2000/svg"><path d="M42.275.85C47.294.51 52.318.195 57.346.047c6.287-.196 12.57.25 18.83.8 3.695 10.386 3.404 21.971-.004 32.394-5.693.527-11.412.905-17.132.83-5.595-.093-11.183-.435-16.765-.836.56-2.868 1.145-5.733 1.705-8.605 7.7.402 15.468 1.023 23.146.007.192-1.15.35-2.309.468-3.47-5.183-.006-10.366 0-15.546-.003-.004-2.75-.004-5.504 0-8.253 5.203-.003 10.403.003 15.607-.003a59.284 59.284 0 0 0-.439-3.45c-7.72-.894-15.495-.472-23.23 0-.573-2.868-1.144-5.736-1.71-8.608ZM0 .85c12.624.004 25.248 0 37.872.004.003 10.798.003 21.593-.003 32.391H25.747c-.007-7.745.004-15.492-.003-23.237-4.532-.003-9.064 0-13.592 0-.01 7.745.003 15.492-.007 23.24-4.05-.003-8.096-.003-12.145-.003V.85Zm83.728.004c4.015-.004 8.031-.004 12.046 0 .004 3.897-.003 7.794.004 11.695h4.481c3.236-3.893 6.456-7.805 9.695-11.7 4.63 0 9.26.005 13.889 0-4.535 5.073-9.091 10.125-13.626 15.2 4.839 5.73 9.675 11.46 14.507 17.192-4.953.004-9.908.008-14.865 0-3.242-4.062-6.478-8.132-9.731-12.191-1.452.003-2.902 0-4.354.006 0 4.063.004 8.126-.003 12.19h-12.04c-.007-10.796-.003-21.594-.003-32.392Z" fill="#1D2172"/></svg>
